img/icon-clock.svg

<svg fill="none" height="32" viewBox="0 0 32 32" width="32" xmlns="http://www.w3.org/2000/svg"><g fill="#fff"><path clip-rule="evenodd" d="m16 16c5.5228 0 10-4.4772 10-10v-2c0-1.10457-.8954-2-2-2h-16c-1.10457 0-2 .89543-2 2v2c0 5.5228 4.4772 10 10 10zm0-3c-3.171 0-5.8496-2.1085-6.71012-5h13.42022c-.8605 2.8915-3.5391 5-6.7101 5z" fill-rule="evenodd"/><path d="m16 16c-5.5228 0-10 4.4771-10 10v2c0 1.1046.89543 2 2 2h16c1.1046 0 2-.8954 2-2v-2c0-5.5228-4.4772-10-10-10z"/></g></svg>

<svg width="32" height="32" viewBox="0 0 32 32" fill="none" xmlns="http://www.w3.org/2000/svg">
<path fill-rule="evenodd" clip-rule="evenodd" d="M16 16C21.5228 16 26 11.5228 26 6V4C26 2.89543 25.1046 2 24 2H8C6.89543 2 6 2.89543 6 4V6C6 11.5228 10.4772 16 16 16ZM16 13C12.829 13 10.1504 10.8915 9.28988 8H22.7101C21.8496 10.8915 19.171 13 16 13Z" fill="white"/>
<path d="M16 16C10.4772 16 6 20.4771 6 26V28C6 29.1046 6.89543 30 8 30H24C25.1046 30 26 29.1046 26 28V26C26 20.4772 21.5228 16 16 16Z" fill="white"/>
</svg>
